X:51
T:Sonata K.27 in B minor
C:Scarlatti, D.
M:3/4
L:1/16
Q:1/4=88
K:Bmin
|:B4A4 G4F4|E4D4 E4F4|G4A4 B4c4|d8 B4z4|
B4A4 G4F4|E4D4 C4B,4|A,4B,4 C4D4|B,8 z8:|

